static/img/kroki/cdd19e99670b716074e6ddf3f6e669a0.svg

<?xml version="1.0" encoding="us-ascii" standalone="no"?><svg xmlns="http://www.w3.org/2000/svg" xmlns:xlink="http://www.w3.org/1999/xlink" contentStyleType="text/css" height="551px" preserveAspectRatio="none" style="width:608px;height:551px;" version="1.1" viewBox="0 0 608 551" width="608px" zoomAndPan="magnify"><defs/><g><!--class aws_backup_copy_job--><g id="elem_aws_backup_copy_job"><rect codeLine="23" fill="#3D176E" height="39.7891" id="aws_backup_copy_job" rx="2.5" ry="2.5" style="stroke:#000D19;stroke-width:0.5;" width="224" x="164.5" y="106.78"/><ellipse cx="179.5" cy="126.6745" fill="#ADD1B2" rx="11" ry="11" style="stroke:#181818;stroke-width:1.0;"/><path d="M182.4688,132.3152 Q181.8906,132.612 181.25,132.7527 Q180.6094,132.9089 179.9063,132.9089 Q177.4063,132.9089 176.0781,131.2683 Q174.7656,129.612 174.7656,126.487 Q174.7656,123.362 176.0781,121.7058 Q177.4063,120.0495 179.9063,120.0495 Q180.6094,120.0495 181.25,120.2058 Q181.9063,120.362 182.4688,120.6589 L182.4688,123.3777 Q181.8438,122.7995 181.25,122.5339 Q180.6563,122.2527 180.0313,122.2527 Q178.6875,122.2527 178,123.3308 Q177.3125,124.3933 177.3125,126.487 Q177.3125,128.5808 178,129.6589 Q178.6875,130.7214 180.0313,130.7214 Q180.6563,130.7214 181.25,130.4558 Q181.8438,130.1745 182.4688,129.5964 L182.4688,132.3152 Z " fill="#000000"/><text fill="#D9B8FF" font-family="Helvetica" font-size="17" lengthAdjust="spacing" textLength="182" x="198.5" y="132.5598">aws_backup_copy_job</text></g><!--class aws_backup_job--><g id="elem_aws_backup_job"><rect codeLine="26" fill="#3D176E" height="39.7891" id="aws_backup_job" rx="2.5" ry="2.5" style="stroke:#000D19;stroke-width:0.5;" width="177" x="7" y="306.36"/><ellipse cx="22" cy="326.2545" fill="#ADD1B2" rx="11" ry="11" style="stroke:#181818;stroke-width:1.0;"/><path d="M24.9688,331.8952 Q24.3906,332.192 23.75,332.3327 Q23.1094,332.4889 22.4063,332.4889 Q19.9063,332.4889 18.5781,330.8483 Q17.2656,329.192 17.2656,326.067 Q17.2656,322.942 18.5781,321.2858 Q19.9063,319.6295 22.4063,319.6295 Q23.1094,319.6295 23.75,319.7858 Q24.4063,319.942 24.9688,320.2389 L24.9688,322.9577 Q24.3438,322.3795 23.75,322.1139 Q23.1563,321.8327 22.5313,321.8327 Q21.1875,321.8327 20.5,322.9108 Q19.8125,323.9733 19.8125,326.067 Q19.8125,328.1608 20.5,329.2389 Q21.1875,330.3014 22.5313,330.3014 Q23.1563,330.3014 23.75,330.0358 Q24.3438,329.7545 24.9688,329.1764 L24.9688,331.8952 Z " fill="#000000"/><text fill="#D9B8FF" font-family="Helvetica" font-size="17" lengthAdjust="spacing" textLength="135" x="41" y="332.1398">aws_backup_job</text></g><!--class aws_backup_plan--><g id="elem_aws_backup_plan"><rect codeLine="29" fill="#3D176E" height="39.7891" id="aws_backup_plan" rx="2.5" ry="2.5" style="stroke:#000D19;stroke-width:0.5;" width="188" x="182.5" y="7"/><ellipse cx="197.5" cy="26.8945" fill="#ADD1B2" rx="11" ry="11" style="stroke:#181818;stroke-width:1.0;"/><path d="M200.4688,32.5352 Q199.8906,32.832 199.25,32.9727 Q198.6094,33.1289 197.9063,33.1289 Q195.4063,33.1289 194.0781,31.4883 Q192.7656,29.832 192.7656,26.707 Q192.7656,23.582 194.0781,21.9258 Q195.4063,20.2695 197.9063,20.2695 Q198.6094,20.2695 199.25,20.4258 Q199.9063,20.582 200.4688,20.8789 L200.4688,23.5977 Q199.8438,23.0195 199.25,22.7539 Q198.6563,22.4727 198.0313,22.4727 Q196.6875,22.4727 196,23.5508 Q195.3125,24.6133 195.3125,26.707 Q195.3125,28.8008 196,29.8789 Q196.6875,30.9414 198.0313,30.9414 Q198.6563,30.9414 199.25,30.6758 Q199.8438,30.3945 200.4688,29.8164 L200.4688,32.5352 Z " fill="#000000"/><text fill="#D9B8FF" font-family="Helvetica" font-size="17" lengthAdjust="spacing" textLength="146" x="216.5" y="32.7798">aws_backup_plan</text></g><!--class aws_backup_protected_resource--><g id="elem_aws_backup_protected_resource"><rect codeLine="32" fill="#3D176E" height="39.7891" id="aws_backup_protected_resource" rx="2.5" ry="2.5" style="stroke:#000D19;stroke-width:0.5;" width="311" x="10" y="505.94"/><ellipse cx="25" cy="525.8345" fill="#ADD1B2" rx="11" ry="11" style="stroke:#181818;stroke-width:1.0;"/><path d="M27.9688,531.4752 Q27.3906,531.772 26.75,531.9127 Q26.1094,532.0689 25.4063,532.0689 Q22.9063,532.0689 21.5781,530.4283 Q20.2656,528.772 20.2656,525.647 Q20.2656,522.522 21.5781,520.8658 Q22.9063,519.2095 25.4063,519.2095 Q26.1094,519.2095 26.75,519.3658 Q27.4063,519.522 27.9688,519.8189 L27.9688,522.5377 Q27.3438,521.9595 26.75,521.6939 Q26.1563,521.4127 25.5313,521.4127 Q24.1875,521.4127 23.5,522.4908 Q22.8125,523.5533 22.8125,525.647 Q22.8125,527.7408 23.5,528.8189 Q24.1875,529.8814 25.5313,529.8814 Q26.1563,529.8814 26.75,529.6158 Q27.3438,529.3345 27.9688,528.7564 L27.9688,531.4752 Z " fill="#000000"/><text fill="#D9B8FF" font-family="Helvetica" font-size="17" lengthAdjust="spacing" textLength="269" x="44" y="531.7198">aws_backup_protected_resource</text></g><!--class aws_backup_recovery_point--><g id="elem_aws_backup_recovery_point"><rect codeLine="35" fill="#3D176E" height="39.7891" id="aws_backup_recovery_point" rx="2.5" ry="2.5" style="stroke:#000D19;stroke-width:0.5;" width="276" x="289.5" y="406.15"/><ellipse cx="304.5" cy="426.0445" fill="#ADD1B2" rx="11" ry="11" style="stroke:#181818;stroke-width:1.0;"/><path d="M307.4688,431.6852 Q306.8906,431.982 306.25,432.1227 Q305.6094,432.2789 304.9063,432.2789 Q302.4063,432.2789 301.0781,430.6383 Q299.7656,428.982 299.7656,425.857 Q299.7656,422.732 301.0781,421.0758 Q302.4063,419.4195 304.9063,419.4195 Q305.6094,419.4195 306.25,419.5758 Q306.9063,419.732 307.4688,420.0289 L307.4688,422.7477 Q306.8438,422.1695 306.25,421.9039 Q305.6563,421.6227 305.0313,421.6227 Q303.6875,421.6227 303,422.7008 Q302.3125,423.7633 302.3125,425.857 Q302.3125,427.9508 303,429.0289 Q303.6875,430.0914 305.0313,430.0914 Q305.6563,430.0914 306.25,429.8258 Q306.8438,429.5445 307.4688,428.9664 L307.4688,431.6852 Z " fill="#000000"/><text fill="#D9B8FF" font-family="Helvetica" font-size="17" lengthAdjust="spacing" textLength="234" x="323.5" y="431.9298">aws_backup_recovery_point</text></g><!--class aws_backup_restore_job--><g id="elem_aws_backup_restore_job"><rect codeLine="38" fill="#3D176E" height="39.7891" id="aws_backup_restore_job" rx="2.5" ry="2.5" style="stroke:#000D19;stroke-width:0.5;" width="245" x="356" y="505.94"/><ellipse cx="371" cy="525.8345" fill="#ADD1B2" rx="11" ry="11" style="stroke:#181818;stroke-width:1.0;"/><path d="M373.9688,531.4752 Q373.3906,531.772 372.75,531.9127 Q372.1094,532.0689 371.4063,532.0689 Q368.9063,532.0689 367.5781,530.4283 Q366.2656,528.772 366.2656,525.647 Q366.2656,522.522 367.5781,520.8658 Q368.9063,519.2095 371.4063,519.2095 Q372.1094,519.2095 372.75,519.3658 Q373.4063,519.522 373.9688,519.8189 L373.9688,522.5377 Q373.3438,521.9595 372.75,521.6939 Q372.1563,521.4127 371.5313,521.4127 Q370.1875,521.4127 369.5,522.4908 Q368.8125,523.5533 368.8125,525.647 Q368.8125,527.7408 369.5,528.8189 Q370.1875,529.8814 371.5313,529.8814 Q372.1563,529.8814 372.75,529.6158 Q373.3438,529.3345 373.9688,528.7564 L373.9688,531.4752 Z " fill="#000000"/><text fill="#D9B8FF" font-family="Helvetica" font-size="17" lengthAdjust="spacing" textLength="203" x="390" y="531.7198">aws_backup_restore_job</text></g><!--class aws_backup_vault--><g id="elem_aws_backup_vault"><rect codeLine="41" fill="#3D176E" height="39.7891" id="aws_backup_vault" rx="2.5" ry="2.5" style="stroke:#000D19;stroke-width:0.5;" width="195" x="144" y="206.57"/><ellipse cx="159" cy="226.4645" fill="#ADD1B2" rx="11" ry="11" style="stroke:#181818;stroke-width:1.0;"/><path d="M161.9688,232.1052 Q161.3906,232.402 160.75,232.5427 Q160.1094,232.6989 159.4063,232.6989 Q156.9063,232.6989 155.5781,231.0583 Q154.2656,229.402 154.2656,226.277 Q154.2656,223.152 155.5781,221.4958 Q156.9063,219.8395 159.4063,219.8395 Q160.1094,219.8395 160.75,219.9958 Q161.4063,220.152 161.9688,220.4489 L161.9688,223.1677 Q161.3438,222.5895 160.75,222.3239 Q160.1563,222.0427 159.5313,222.0427 Q158.1875,222.0427 157.5,223.1208 Q156.8125,224.1833 156.8125,226.277 Q156.8125,228.3708 157.5,229.4489 Q158.1875,230.5114 159.5313,230.5114 Q160.1563,230.5114 160.75,230.2458 Q161.3438,229.9645 161.9688,229.3864 L161.9688,232.1052 Z " fill="#000000"/><text fill="#D9B8FF" font-family="Helvetica" font-size="17" lengthAdjust="spacing" textLength="153" x="178" y="232.3498">aws_backup_vault</text></g><!--link aws_backup_copy_job to aws_backup_recovery_point--><g id="link_aws_backup_copy_job_aws_backup_recovery_point"><path codeLine="44" d="M301.68,146.97 C319.25,161.62 342.05,183.17 356.5,206.57 C397.68,273.25 416.4295,360.3809 423.4095,400.0209 " fill="none" id="aws_backup_copy_job-to-aws_backup_recovery_point" style="stroke:#1A83AF;stroke-width:2.0;"/><polygon fill="#1A83AF" points="424.45,405.93,426.8286,396.3727,423.5829,401.0058,418.9499,397.76,424.45,405.93" style="stroke:#1A83AF;stroke-width:2.0;"/></g><!--link aws_backup_copy_job to aws_backup_vault--><g id="link_aws_backup_copy_job_aws_backup_vault"><path codeLine="45" d="M269.59,147 C263.45,164.14 256.5516,183.4108 250.4216,200.5408 " fill="none" id="aws_backup_copy_job-to-aws_backup_vault" style="stroke:#1A83AF;stroke-width:2.0;"/><polygon fill="#1A83AF" points="248.4,206.19,255.1985,199.0639,250.0846,201.4823,247.6662,196.3685,248.4,206.19" style="stroke:#1A83AF;stroke-width:2.0;"/></g><!--link aws_backup_job to aws_backup_protected_resource--><g id="link_aws_backup_job_aws_backup_protected_resource"><path codeLine="46" d="M102.34,346.56 C115.72,384.33 143.2267,461.9643 156.6267,499.7943 " fill="none" id="aws_backup_job-to-aws_backup_protected_resource" style="stroke:#1A83AF;stroke-width:2.0;"/><polygon fill="#1A83AF" points="158.63,505.45,159.3955,495.6309,156.9606,500.7369,151.8546,498.302,158.63,505.45" style="stroke:#1A83AF;stroke-width:2.0;"/></g><!--link aws_backup_job to aws_backup_recovery_point--><g id="link_aws_backup_job_aws_backup_recovery_point"><path codeLine="47" d="M161.09,346.58 C219.2,363.69 297.8545,386.8545 356.0045,403.9845 " fill="none" id="aws_backup_job-to-aws_backup_recovery_point" style="stroke:#1A83AF;stroke-width:2.0;"/><polygon fill="#1A83AF" points="361.76,405.68,354.2571,399.2998,356.9638,404.2671,351.9965,406.9738,361.76,405.68" style="stroke:#1A83AF;stroke-width:2.0;"/></g><!--link aws_backup_plan to aws_backup_copy_job--><g id="link_aws_backup_plan_aws_backup_copy_job"><path codeLine="48" d="M276.5,47.21 C276.5,64.35 276.5,83.27 276.5,100.4 " fill="none" id="aws_backup_plan-to-aws_backup_copy_job" style="stroke:#1A83AF;stroke-width:2.0;"/><polygon fill="#1A83AF" points="276.5,106.4,280.5,97.4,276.5,101.4,272.5,97.4,276.5,106.4" style="stroke:#1A83AF;stroke-width:2.0;"/></g><!--link aws_backup_plan to aws_backup_job--><g id="link_aws_backup_plan_aws_backup_job"><path codeLine="49" d="M226.16,47.24 C198.98,60.17 167.08,79.8 147.5,106.78 C102.27,169.11 95.9625,259.3006 95.4025,300.0106 " fill="none" id="aws_backup_plan-to-aws_backup_job" style="stroke:#1A83AF;stroke-width:2.0;"/><polygon fill="#1A83AF" points="95.32,306.01,99.4434,297.0659,95.3888,301.0105,91.4442,296.9558,95.32,306.01" style="stroke:#1A83AF;stroke-width:2.0;"/></g><!--link aws_backup_plan to aws_backup_recovery_point--><g id="link_aws_backup_plan_aws_backup_recovery_point"><path codeLine="50" d="M329.56,47.25 C356.71,59.96 387.71,79.37 405.5,106.78 C468.22,203.42 444.8138,347.2568 433.3538,400.0068 " fill="none" id="aws_backup_plan-to-aws_backup_recovery_point" style="stroke:#1A83AF;stroke-width:2.0;"/><polygon fill="#1A83AF" points="432.08,405.87,437.8995,397.9244,433.1415,400.984,430.0819,396.226,432.08,405.87" style="stroke:#1A83AF;stroke-width:2.0;"/></g><!--link aws_backup_recovery_point to aws_backup_protected_resource--><g id="link_aws_backup_recovery_point_aws_backup_protected_resource"><path codeLine="51" d="M375.74,446.37 C329.81,463.51 268.6707,486.3206 222.7807,503.4606 " fill="none" id="aws_backup_recovery_point-to-aws_backup_protected_resource" style="stroke:#1A83AF;stroke-width:2.0;"/><polygon fill="#1A83AF" points="217.16,505.56,226.9907,506.1581,221.8439,503.8105,224.1915,498.6638,217.16,505.56" style="stroke:#1A83AF;stroke-width:2.0;"/></g><!--link aws_backup_recovery_point to aws_backup_restore_job--><g id="link_aws_backup_recovery_point_aws_backup_restore_job"><path codeLine="52" d="M437.58,446.37 C446.52,463.51 456.7377,483.0989 465.6677,500.2389 " fill="none" id="aws_backup_recovery_point-to-aws_backup_restore_job" style="stroke:#1A83AF;stroke-width:2.0;"/><polygon fill="#1A83AF" points="468.44,505.56,467.8289,495.7301,466.1297,501.1257,460.7341,499.4265,468.44,505.56" style="stroke:#1A83AF;stroke-width:2.0;"/></g><!--link aws_backup_vault to aws_backup_job--><g id="link_aws_backup_vault_aws_backup_job"><path codeLine="53" d="M212.66,246.79 C187.06,263.93 154.8454,285.5115 129.2654,302.6415 " fill="none" id="aws_backup_vault-to-aws_backup_job" style="stroke:#1A83AF;stroke-width:2.0;"/><polygon fill="#1A83AF" points="124.28,305.98,133.9838,304.2958,128.4345,303.1979,129.5324,297.6486,124.28,305.98" style="stroke:#1A83AF;stroke-width:2.0;"/></g><!--link aws_backup_vault to aws_backup_protected_resource--><g id="link_aws_backup_vault_aws_backup_protected_resource"><path codeLine="54" d="M236.63,246.52 C222.94,300.1 185.6752,445.8867 171.9152,499.7467 " fill="none" id="aws_backup_vault-to-aws_backup_protected_resource" style="stroke:#1A83AF;stroke-width:2.0;"/><polygon fill="#1A83AF" points="170.43,505.56,176.5333,497.8302,171.6676,500.7156,168.7822,495.85,170.43,505.56" style="stroke:#1A83AF;stroke-width:2.0;"/></g><!--link aws_backup_vault to aws_backup_recovery_point--><g id="link_aws_backup_vault_aws_backup_recovery_point"><path codeLine="55" d="M259.67,246.77 C295.23,284.54 369.5275,363.4611 405.1375,401.2911 " fill="none" id="aws_backup_vault-to-aws_backup_recovery_point" style="stroke:#1A83AF;stroke-width:2.0;"/><polygon fill="#1A83AF" points="409.25,405.66,405.9938,396.365,405.8229,402.0193,400.1686,401.8483,409.25,405.66" style="stroke:#1A83AF;stroke-width:2.0;"/></g><!--SRC=[dP9VJy8m5CNVzocQy4p290gyc209qHTYn3TZbgwzWyhMBhSTP1g_k_mrjQLZ-DhpExtdddOfE10eIbEJ0eeKK4Tw9MH9aHPaZAWs4vKh99qierb_u8fJ9Sr5O4OB88-Ghy48HbtYTIdOIeBMvCQI7YXRBL1LaX-kDqYbtaeWZKLDSghrs1WKQMN02iD7wJ3BNDAzjDFdyU0EF4mX1pmYlLwFnoCNkJYgSUzVOYu-WSHsQJDbm8lfZTXJZIbtX1NIM_Ia1pC-Kyw5N91Rw-pba0abu9_p-P9ojTdH6SsrFKORG52cBc7YRGMZ8Sy6P-6d41onNNM4RdIIRf6gJ9Wgw-H3fUGhYhvzEQoKEPKX2RVjC0CyGT2gGWO1486fDM2Tb4f84uIqKGWDKTQqoe_kSvjrtphnUDWVJz-xz-7fLrdt4oEdfn3irz7M6KwuRpzaEyLlRRY63MToNlD_TRIynFeKaVSJMgxP33V7RFOw7Vq0]--></g></svg>

<svg xmlns="http://www.w3.org/2000/svg" width="608" height="551" viewBox="0 0 608 551"><rect width="224" height="39.789" x="164.5" y="106.78" fill="#3D176E" rx="2.5" ry="2.5" style="stroke:#000d19;stroke-width:.5"/><circle cx="179.5" cy="126.674" r="11" fill="#ADD1B2" style="stroke:#181818;stroke-width:1"/><path d="M182.469 132.315q-.578.297-1.219.438-.64.156-1.344.156-2.5 0-3.828-1.64-1.312-1.657-1.312-4.782t1.312-4.781q1.328-1.657 3.828-1.657.703 0 1.344.157.656.156 1.219.453v2.719q-.625-.579-1.219-.844-.594-.281-1.219-.281-1.344 0-2.031 1.078-.687 1.062-.687 3.156t.687 3.172q.688 1.062 2.031 1.062.625 0 1.219-.265.594-.281 1.219-.86z"/><text x="198.5" y="132.56" fill="#D9B8FF" font-family="Helvetica" font-size="17" textLength="182">aws_backup_copy_job</text><rect width="177" height="39.789" x="7" y="306.36" fill="#3D176E" rx="2.5" ry="2.5" style="stroke:#000d19;stroke-width:.5"/><circle cx="22" cy="326.255" r="11" fill="#ADD1B2" style="stroke:#181818;stroke-width:1"/><path d="M24.969 331.895q-.578.297-1.219.438-.64.156-1.344.156-2.5 0-3.828-1.64-1.312-1.657-1.312-4.782t1.312-4.781q1.328-1.656 3.828-1.656.703 0 1.344.156.656.156 1.219.453v2.719q-.625-.579-1.219-.844-.594-.281-1.219-.281-1.343 0-2.031 1.078-.687 1.062-.687 3.156t.687 3.172q.688 1.062 2.031 1.062.625 0 1.219-.265.594-.281 1.219-.86z"/><text x="41" y="332.14" fill="#D9B8FF" font-family="Helvetica" font-size="17" textLength="135">aws_backup_job</text><rect width="188" height="39.789" x="182.5" y="7" fill="#3D176E" rx="2.5" ry="2.5" style="stroke:#000d19;stroke-width:.5"/><circle cx="197.5" cy="26.895" r="11" fill="#ADD1B2" style="stroke:#181818;stroke-width:1"/><path d="M200.469 32.535q-.578.297-1.219.438-.64.156-1.344.156-2.5 0-3.828-1.64-1.312-1.657-1.312-4.782t1.312-4.781q1.328-1.656 3.828-1.656.703 0 1.344.156.656.156 1.219.453v2.719q-.625-.578-1.219-.844-.594-.281-1.219-.281-1.344 0-2.031 1.078-.687 1.062-.687 3.156t.687 3.172q.688 1.062 2.031 1.062.625 0 1.219-.265.594-.281 1.219-.86z"/><text x="216.5" y="32.78" fill="#D9B8FF" font-family="Helvetica" font-size="17" textLength="146">aws_backup_plan</text><rect width="311" height="39.789" x="10" y="505.94" fill="#3D176E" rx="2.5" ry="2.5" style="stroke:#000d19;stroke-width:.5"/><circle cx="25" cy="525.835" r="11" fill="#ADD1B2" style="stroke:#181818;stroke-width:1"/><path d="M27.969 531.475q-.578.297-1.219.438-.64.156-1.344.156-2.5 0-3.828-1.64-1.312-1.657-1.312-4.782t1.312-4.781q1.328-1.656 3.828-1.656.703 0 1.344.156.656.156 1.219.453v2.719q-.625-.578-1.219-.844-.594-.281-1.219-.281-1.343 0-2.031 1.078-.687 1.062-.687 3.156t.687 3.172q.688 1.062 2.031 1.062.625 0 1.219-.265.594-.281 1.219-.86z"/><text x="44" y="531.72" fill="#D9B8FF" font-family="Helvetica" font-size="17" textLength="269">aws_backup_protected_resource</text><rect width="276" height="39.789" x="289.5" y="406.15" fill="#3D176E" rx="2.5" ry="2.5" style="stroke:#000d19;stroke-width:.5"/><circle cx="304.5" cy="426.045" r="11" fill="#ADD1B2" style="stroke:#181818;stroke-width:1"/><path d="M307.469 431.685q-.578.297-1.219.438-.64.156-1.344.156-2.5 0-3.828-1.64-1.312-1.657-1.312-4.782t1.312-4.781q1.328-1.656 3.828-1.656.703 0 1.344.156.656.156 1.219.453v2.719q-.625-.578-1.219-.844-.594-.281-1.219-.281-1.344 0-2.031 1.078-.687 1.062-.687 3.156t.687 3.172q.688 1.062 2.031 1.062.625 0 1.219-.265.594-.281 1.219-.86z"/><text x="323.5" y="431.93" fill="#D9B8FF" font-family="Helvetica" font-size="17" textLength="234">aws_backup_recovery_point</text><rect width="245" height="39.789" x="356" y="505.94" fill="#3D176E" rx="2.5" ry="2.5" style="stroke:#000d19;stroke-width:.5"/><circle cx="371" cy="525.835" r="11" fill="#ADD1B2" style="stroke:#181818;stroke-width:1"/><path d="M373.969 531.475q-.578.297-1.219.438-.64.156-1.344.156-2.5 0-3.828-1.64-1.312-1.657-1.312-4.782t1.312-4.781q1.328-1.656 3.828-1.656.703 0 1.344.156.656.156 1.219.453v2.719q-.625-.578-1.219-.844-.594-.281-1.219-.281-1.344 0-2.031 1.078-.687 1.062-.687 3.156t.687 3.172q.688 1.062 2.031 1.062.625 0 1.219-.265.594-.281 1.219-.86z"/><text x="390" y="531.72" fill="#D9B8FF" font-family="Helvetica" font-size="17" textLength="203">aws_backup_restore_job</text><rect width="195" height="39.789" x="144" y="206.57" fill="#3D176E" rx="2.5" ry="2.5" style="stroke:#000d19;stroke-width:.5"/><circle cx="159" cy="226.464" r="11" fill="#ADD1B2" style="stroke:#181818;stroke-width:1"/><path d="M161.969 232.105q-.578.297-1.219.438-.64.156-1.344.156-2.5 0-3.828-1.64-1.312-1.657-1.312-4.782t1.312-4.781q1.328-1.657 3.828-1.657.703 0 1.344.157.656.156 1.219.453v2.719q-.625-.579-1.219-.844-.594-.281-1.219-.281-1.344 0-2.031 1.078-.687 1.062-.687 3.156t.687 3.172q.688 1.062 2.031 1.062.625 0 1.219-.265.594-.282 1.219-.86z"/><text x="178" y="232.35" fill="#D9B8FF" font-family="Helvetica" font-size="17" textLength="153">aws_backup_vault</text><path fill="none" d="M301.68 146.97c17.57 14.65 40.37 36.2 54.82 59.6 41.18 66.68 59.93 153.81 66.91 193.45" style="stroke:#1a83af;stroke-width:2"/><path fill="#1A83AF" d="m424.45 405.93 2.379-9.557-3.246 4.633-4.633-3.246z" style="stroke:#1a83af;stroke-width:2"/><path fill="none" d="M269.59 147c-6.14 17.14-13.038 36.41-19.168 53.54" style="stroke:#1a83af;stroke-width:2"/><path fill="#1A83AF" d="m248.4 206.19 6.798-7.126-5.113 2.418-2.419-5.113z" style="stroke:#1a83af;stroke-width:2"/><path fill="none" d="M102.34 346.56c13.38 37.77 40.887 115.404 54.287 153.234" style="stroke:#1a83af;stroke-width:2"/><path fill="#1A83AF" d="m158.63 505.45.766-9.82-2.435 5.107-5.106-2.435z" style="stroke:#1a83af;stroke-width:2"/><path fill="none" d="M161.09 346.58c58.11 17.11 136.764 40.274 194.915 57.405" style="stroke:#1a83af;stroke-width:2"/><path fill="#1A83AF" d="m361.76 405.68-7.503-6.38 2.707 4.967-4.967 2.707z" style="stroke:#1a83af;stroke-width:2"/><path fill="none" d="M276.5 47.21v53.19" style="stroke:#1a83af;stroke-width:2"/><path fill="#1A83AF" d="m276.5 106.4 4-9-4 4-4-4z" style="stroke:#1a83af;stroke-width:2"/><path fill="none" d="M226.16 47.24c-27.18 12.93-59.08 32.56-78.66 59.54-45.23 62.33-51.537 152.52-52.097 193.23" style="stroke:#1a83af;stroke-width:2"/><path fill="#1A83AF" d="m95.32 306.01 4.123-8.944-4.054 3.945-3.945-4.055z" style="stroke:#1a83af;stroke-width:2"/><path fill="none" d="M329.56 47.25c27.15 12.71 58.15 32.12 75.94 59.53 62.72 96.64 39.314 240.477 27.854 293.227" style="stroke:#1a83af;stroke-width:2"/><path fill="#1A83AF" d="m432.08 405.87 5.82-7.946-4.758 3.06-3.06-4.758z" style="stroke:#1a83af;stroke-width:2"/><path fill="none" d="M375.74 446.37c-45.93 17.14-107.07 39.95-152.96 57.09" style="stroke:#1a83af;stroke-width:2"/><path fill="#1A83AF" d="m217.16 505.56 9.83.598-5.146-2.348 2.347-5.146z" style="stroke:#1a83af;stroke-width:2"/><path fill="none" d="M437.58 446.37c8.94 17.14 19.158 36.729 28.088 53.869" style="stroke:#1a83af;stroke-width:2"/><path fill="#1A83AF" d="m468.44 505.56-.611-9.83-1.7 5.396-5.395-1.7z" style="stroke:#1a83af;stroke-width:2"/><path fill="none" d="M212.66 246.79c-25.6 17.14-57.815 38.722-83.395 55.852" style="stroke:#1a83af;stroke-width:2"/><path fill="#1A83AF" d="m124.28 305.98 9.704-1.684-5.55-1.098 1.098-5.55z" style="stroke:#1a83af;stroke-width:2"/><path fill="none" d="M236.63 246.52c-13.69 53.58-50.955 199.367-64.715 253.227" style="stroke:#1a83af;stroke-width:2"/><path fill="#1A83AF" d="m170.43 505.56 6.103-7.73-4.865 2.886-2.886-4.866z" style="stroke:#1a83af;stroke-width:2"/><path fill="none" d="M259.67 246.77c35.56 37.77 109.857 116.691 145.467 154.521" style="stroke:#1a83af;stroke-width:2"/><path fill="#1A83AF" d="m409.25 405.66-3.256-9.295-.171 5.654-5.654-.17z" style="stroke:#1a83af;stroke-width:2"/></svg>
